X: 3
T: Biddy Barry's
M: 4/4
L: 1/8
R: barndance / schottische
K: GMaj
|: (3DEF |\
G>B D2 G>B D2 | G2 B>^A B2 =A>G | F>A D2 F>A D2 | F2 A>^G A2 (3A=GF |
G>B (3DEF G>BD>F | G2 B2 B2 A>B | c>BA>G F2 (3DEF | G2 B2 G2 :|
|: B>c |\
d2 g2 g2 f>e | d2 B2 B2 A>B | c2 e>^d e2 (3e=dc | B2 G>F G2 (3ABc |
(3ded g>f (3gag (3gfe | d2 B>^A (3BcB =A>B |[1 c>BA>G F<d^c>d | (3BcB G>F G>A :|
[2 c2 (3BAG F2 D2 | G2 (3GGG G2 |]
